X:20022
T:Three Sea Captains, The
T:Three Captains (Jig)
R:Jig
C:Trad.
O:England
Z:Paul Hardy's Session Tunebook 2015 (see www.paulhardy.net). Creative Commons cc by-nc-sa licenced.
M:6/8
L:1/8
Q:3/8=110
K:G
D|"G"G2G BGB|"D"c2A F2A|"G"G2G BGB|d2B G2B|"C"cec "D"A2c|"G"BdB "Em"G2B|"Am"A2B c2B|"D"AcG FED|
"G"G2G BGB|"D"c2A F2A|"G"G2G BGB|d2B G2B|"C"cec "D"A2A|"G"BdB "Em"G2B|"Am"EcB "D"AGF|"G"G3 G2:|
|:d|"G"g2g dcB|"Am"ABc "D"def|"G"g2g dBd|"Am"ecA "D"A2A|"G"g2g bge|"D"f2g afd|
"A"egf ed^c|"D"d3 d2B|"C"c2d ecA|"G"B2c dBG|"Am"A2B c2B|"D"ABG FED|"G"G2G BGB|
"D"c2A F2A|"G"G2G BGB|d2B G2B|"C"cec "D"A2c|"G"BdB "Em"G2B|"Am"AcB "D"AGF|"G"G3G2:|

